X:1
T:Title
%%score { ( 1 3 ) | ( 2 4 ) }
L:1/8
M:3/4
K:D
V:1 treble nm="Grand Piano"
V:3 treble 
V:2 bass 
V:4 bass 
V:1
 z2 z2[Q:1/4=100] DE | F2 E2 D2 | A4 GF | [G,CE]2 [F,D]2[K:treble] [A,CE]2 | [A,DF]4 [A,DF][A,DF] | %5
 [G,DG]2 [DA]2 [DB]2 | [DB]2 [DE]2 [DB]2 | A6- | A4 z2 | [DA]2 [DF]2 [EG]2 | [=FB]2 [^FA]3 [FA] | %11
 [Fd]2 [Gc]2 [A=c]2 | B4 BB | d2 c2 B2 | A2 F2 D2 | [DF]2 [CF]2 [CE]2 |[M:2/4] D4 | %17
[M:1/4] [CE][CE] |[M:3/4] [CE]2 [DF]2 [EG]2 | [EG]2 [DF]2 [CE]2 | F2 D2 G2 | F4 [DF][DF] | %22
 [DG]2 [DA]2 [DB]2 | [DB]2 [DE]2 [DB]2 | A6- | A4 z2 | [DA]2 [DF]2 [EG]2 | [FA]3 [GB] [FA]2 | %28
 [Af]2 [Ae]2 [Ad]2 |[M:4/4] [Bd]6 B2 |[M:3/4] A2 d2 F2 | [CA]2 [CG]2 [CE]2 | D6- |[M:2/4] D4 |] %34
V:2
 z2 z2 [D,F,][D,G,D] | [D,A,D]2 [D,G,C]2 [D,F,]2 | [F,A,D]4 [E,A,C][D,A,D] | A,,2 A,,2 A,,2 | %4
 D,4 =C,C, | B,,2 [A,,F,]2 [G,,G,]2 | [^G,,E,]2 [G,,E,]2 [G,,E,]2 | E,2 F,2 G,2 | %8
 B,2 A,2 [A,,G,]2 | [D,F,]2 [D,A,]2 [D,A,]2 | [D,^G,]2 [D,A,]3 [D,A,] | [D,A,]2 [E,A,]2 [F,D]2 | %12
 [G,DG]4 [G,DG][G,DG] | [^G,B,=F]2 [G,CF]2 [G,DF]2 | [A,DF]2[K:bass] [A,D]2 [B,,^G,]2 | %15
 [A,,A,]2 [A,,A,]2 [A,,G,]2 |[M:2/4] [D,F,]4 |[M:1/4] [A,,A,][A,,A,] | %18
[M:3/4] [A,,A,]2 [A,,A,]2 [A,,A,]2 | [A,,A,]2 [A,,A,]2 [A,,A,]2 | [D,A,D]2 [D,F,]2 [D,B,D]2 | %21
 [D,A,D]4 [=C,A,][C,A,] | [B,,G,]2 [A,,F,]2 [G,,G,]2 | [^G,,E,]2 [G,,E,]2 [G,,E,]2 | E,2 F,2 G,2 | %25
 B,2 A,2 [A,,G,]2 | [D,F,]2 [D,A,]2 [D,A,]2 | [D,A,]3 [D,D] [D,D]2 | [D,D]2 [E,C]2 [F,D]2 | %29
[M:4/4][K:treble] [G,D]6 [G,DG]2 |[M:3/4] [A,DF]2 [A,F]2 [A,D]2 | [A,,E,]2 [A,,E,]2 [A,,G,]2 | %32
 F,4 G,2 |[M:2/4] F,4 |] %34
V:3
 x6 | x6 | x6 | x4[K:treble] x2 | x6 | x6 | x6 | C2 D2 E2 | G2 F2 [EA]2 | x6 | x6 | x6 | x6 | x6 | %14
 x6 | x6 |[M:2/4] x4 |[M:1/4] x2 |[M:3/4] x6 | x6 | x6 | x6 | x6 | x6 | C2 D2 E2 | G2 F2 [EA]2 | %26
 x6 | x6 | x6 |[M:4/4] x8 |[M:3/4] x6 | x6 | z2 z2 B,2 |[M:2/4] A,4 |] %34
V:4
 x6 | x6 | x6 | x6 | x6 | x6 | x6 | A,,6- | A,,4 z2 | x6 | x6 | x6 | x6 | x6 | x2[K:bass] x4 | x6 | %16
[M:2/4] x4 |[M:1/4] x2 |[M:3/4] x6 | x6 | x6 | x6 | x6 | x6 | A,,6- | A,,4 z2 | x6 | x6 | x6 | %29
[M:4/4][K:treble] x8 |[M:3/4] x6 | x6 | D,6- |[M:2/4] D,4 |] %34

